X:16
T:Tom Jones. JBi.16
M:6/8
L:1/8
Q:3/8=100
S:James Biggins MS, Leeds, 1779.
R:.Misc.
O:England
A:Yorkshire
N:Vickers has this slightly different.
Z:vmp.Nick Barber & Chris Partington
K:D
a3g3|fdf ecA|d2f ece|d2f ecA|!
dcd ede|fef ^gfg|a2d cdB|A3-â€œ^crâ€A3||!
|D2FE2G|F2A EFG|F2d AB=c|B3-B2F|!
GFG AGA|BAB cBc|d2G FGE|D3-â€œ^crâ€D3|]

